X: 11142
T: FAL LA LA
%R: march
B: "Edinburgh Repository of Music" v.1 p.114 #2
F: http://digital.nls.uk/special-collections-of-printed-music/pageturner.cfm?id=87776133
Z: 2015 John Chambers <jc:trillian.mit.edu>
N: Corrected lengths of several rests, and dropped the final 8th rest.
M: 2/4
L: 1/16
K: A
A2 |\
e2e2 c2c2 | A2A2 (A/B/c2)z | d2d2 c3A | G>AB>c B2 zB |\
e2e2c2c2 | A2A2 A/B/c2z | d2d2c3A | B>AB>c A2 ze |
B2c2d2e2 | B2c2d2e2 | B2c2d2f2 | e2c2He2 ze |\
e2e2c2c2 | A2A2 A/B/c2z | d2d2c3A | B>AB>c A2 :|

%%sep 2 1 500
%%sep 1 1 500

